16x16/actions/align-horizontal-left-to-anchor.svg

<svg xmlns="http://www.w3.org/2000/svg" viewBox="0 0 16 16"><path style="fill:currentColor;fill-opacity:1;stroke:none;color:#5d656b" d="M2 2v5h2V2H2zm3 0v12h1V2H5zm3 0v5h6V2H8zm1 1h4v3H9V3zM7 9v5h7V9H7zm1 1h5v3H8v-3z"/></svg>

<svg xmlns="http://www.w3.org/2000/svg" viewBox="0 0 16 16">
  <defs id="defs3051">
    <style type="text/css" id="current-color-scheme">
      .ColorScheme-Text {
        color:#5d656b;
      }
      </style>
  </defs>
 <path style="fill:currentColor;fill-opacity:1;stroke:none" 
       d="M 2 2 L 2 7 L 4 7 L 4 2 L 2 2 z M 5 2 L 5 14 L 6 14 L 6 2 L 5 2 z M 8 2 L 8 7 L 14 7 L 14 2 L 8 2 z M 9 3 L 13 3 L 13 6 L 9 6 L 9 3 z M 7 9 L 7 14 L 14 14 L 14 9 L 7 9 z M 8 10 L 13 10 L 13 13 L 8 13 L 8 10 z "
     class="ColorScheme-Text"
     />
</svg>
